public/images/poses-lg/SeatedTwist.svg

<svg width="800" height="800" fill="none" xmlns="http://www.w3.org/2000/svg"><g clip-path="url(#a)"><path d="M502.953 709.606c-32.75 2.561-63.161 40.978-107.608 46.102-44.448 5.122-95.913-2.563-112.287-5.124-16.376-2.561-18.715 2.561-14.036 17.929 4.679 15.367 23.393 20.489 53.804 20.489s51.465-2.561 72.518-7.682" fill="#fff"/><path d="M502.953 709.606c-32.75 2.561-63.161 40.978-107.608 46.102-44.448 5.122-95.913-2.563-112.287-5.124-16.376-2.561-18.715 2.561-14.036 17.929 4.679 15.367 23.393 20.489 53.804 20.489s51.465-2.561 72.518-7.682" stroke="#000" stroke-width="5" stroke-miterlimit="10"/><path d="M502.953 709.606c-32.75 2.561-63.161 40.978-107.608 46.102-44.448 5.122-95.913-2.563-112.287-5.124-16.376-2.561-18.715 2.561-14.036 17.929 4.679 15.367 23.393 20.489 53.804 20.489s51.465-2.561 72.518-7.682" stroke="#000" stroke-width="5" stroke-miterlimit="10"/><path d="M402.934 753.989s2.792 16.346-2.616 27.943Z" fill="#fff"/><path d="M402.934 753.989s2.792 16.346-2.616 27.943" stroke="#000" stroke-width="5" stroke-miterlimit="10"/><path d="M402.934 753.989s2.792 16.346-2.616 27.943M352.578 787.996c1.729-5.101 4.068-25.589 1.729-30.712" stroke="#000" stroke-width="5" stroke-miterlimit="10"/><path d="M561.646 704.484c-21.053-17.928-98.25 0-98.25 0-14.036-12.805-15.517-44.522-15.517-44.522l-49.984-9.262-50.606 9.262s-.859 31.717-14.895 44.522c0 0-77.197-17.928-98.25 0-21.054 17.928 7.017 46.1 30.411 53.784 23.393 7.682 98.25 23.049 133.34 23.049 35.091 0 109.947-15.367 133.341-23.049 23.392-7.684 51.465-35.856 30.41-53.784Z" fill="#fff" stroke="#000" stroke-width="5" stroke-miterlimit="10"/><path d="M561.646 704.484c-21.053-17.928-98.25 0-98.25 0-14.036-12.805-15.517-44.522-15.517-44.522l-49.984-9.262-50.606 9.262s-.859 31.717-14.895 44.522c0 0-77.197-17.928-98.25 0-21.054 17.928 7.017 46.1 30.411 53.784 23.393 7.682 98.25 23.049 133.34 23.049 35.091 0 109.947-15.367 133.341-23.049 23.392-7.684 51.465-35.856 30.41-53.784Z" stroke="#000" stroke-width="5" stroke-miterlimit="10"/><path d="M290.287 709.606c32.75 2.561 63.161 40.978 107.608 46.102 44.448 5.122 95.912-2.563 112.287-5.124 16.374-2.561 18.714 2.561 14.035 17.929-4.679 15.367-23.393 20.489-53.804 20.489s-50.994-6.21-72.518-7.682c-37.429-2.563-107.704-12.527-133.341-23.05" fill="#fff"/><path d="M290.287 709.606c32.75 2.561 63.161 40.978 107.608 46.102 44.448 5.122 95.912-2.563 112.287-5.124 16.374-2.561 18.714 2.561 14.035 17.929-4.679 15.367-23.393 20.489-53.804 20.489s-50.994-6.21-72.518-7.682c-37.429-2.563-107.704-12.527-133.341-23.05" stroke="#000" stroke-width="5" stroke-miterlimit="10"/><path d="M290.287 709.606c32.75 2.561 63.161 40.978 107.608 46.102 44.448 5.122 95.912-2.563 112.287-5.124 16.374-2.561 18.714 2.561 14.035 17.929-4.679 15.367-23.393 20.489-53.804 20.489s-50.994-6.21-72.518-7.682c-37.429-2.563-107.704-12.527-133.341-23.05" stroke="#000" stroke-width="5" stroke-miterlimit="10"/><path d="M502.953 709.606c-32.75 2.561-63.161 40.978-107.608 46.102" stroke="#000" stroke-width="5" stroke-miterlimit="10"/><path d="M447.879 659.962s-20.944 10.8-50.092 10.8c-29.145 0-50.498-10.8-50.498-10.8s-.333-28.188 2.339-89.64c.668-15.359 1.908-27.587 3.343-37.217 2.496-16.812 10.037-32.194 21.234-44.025.102-.11.208-.22.313-.33 16.359-17.33 4.662-68.552 4.662-68.552s11.699 10.244 25.732 10.244c14.034 0 7.018 17.928 7.018 17.928s-1.492 6.618.548 17.305c2.225 11.64 4.176 27.252 12.007 35.496 7.576 7.978 22.921 28.158 25.733 35.856 4.679 12.805-2.34 40.978-4.679 51.222-2.339 10.245 2.34 71.713 2.34 71.713Z" fill="#fff" stroke="#000" stroke-width="5" stroke-miterlimit="10"/><path d="M447.879 659.962s-20.944 10.8-50.092 10.8c-29.145 0-50.498-10.8-50.498-10.8s-.333-28.188 2.339-89.64c.668-15.359 1.908-27.587 3.343-37.217 2.496-16.812 10.037-32.194 21.234-44.025.102-.11.208-.22.313-.33 16.359-17.33 4.662-68.552 4.662-68.552s11.699 10.244 25.732 10.244c14.034 0 7.018 17.928 7.018 17.928s-1.492 6.618.548 17.305c2.225 11.64 4.176 27.252 12.007 35.496 7.576 7.978 22.921 28.158 25.733 35.856 4.679 12.805-2.34 40.978-4.679 51.222-2.339 10.245 2.34 71.713 2.34 71.713Z" stroke="#000" stroke-width="5" stroke-miterlimit="10"/><path d="M379.717 425.058c-4.722-8.809-.975-17.631-2.696-28.703-2.732-17.593 16.626-35.307 34.827-34.478 24.03 1.091 26.532 94.977 12.649 96.835-8.224 1.103-23.342-6.243-34.472-21.024-3.578-4.749-10.308-12.63-10.308-12.63Z" fill="#fff" stroke="#000" stroke-width="5" stroke-miterlimit="10"/><path d="M379.717 425.058c-4.722-8.809-.975-17.631-2.696-28.703-2.732-17.593 16.626-35.307 34.827-34.478 24.03 1.091 26.532 94.977 12.649 96.835-8.224 1.103-23.342-6.243-34.472-21.024-3.578-4.749-10.308-12.63-10.308-12.63Z" stroke="#000" stroke-width="5" stroke-miterlimit="10"/><path d="M422.051 372.661c-.085 16.481-10.746 46.475-29.709 41.377-21.315-5.727-12.465 8.034-10.743 12.386 1.726 4.352 12.16 12.46 10.058 13.736-2.1 1.278-29.595-11.525-32.8-35.236-3.203-23.71 4.901-35.069 16.057-42.569 11.156-7.5 29.562-8.842 40.888-1.434 11.327 7.409 6.249 11.74 6.249 11.74Z" fill="#100200" stroke="#000" stroke-width="5" stroke-miterlimit="10"/><path d="M407.515 756.615c2.935 13.475-2.852 25.314-2.852 25.314" stroke="#000" stroke-width="5" stroke-miterlimit="10"/><path d="M384.718 554.955s68.08 88.281 72.518 94.762c14.036 20.49 72.518 40.978 77.197 43.539 4.679 2.562 16.376 28.173 30.349 39.401 13.978 11.227 4.74-11.229 1.423-23.051-3.318-11.822-71.54-67.573-83.237-80.379-9.991-10.939-50.718-96.648-62.371-121.391-3.26-6.92-8.363-12.705-14.826-15.949" fill="#fff"/><path d="M384.718 554.955s68.08 88.281 72.518 94.762c14.036 20.49 72.518 40.978 77.197 43.539 4.679 2.562 16.376 28.173 30.349 39.401 13.978 11.227 4.74-11.229 1.423-23.051-3.318-11.822-71.54-67.573-83.237-80.379-9.991-10.939-50.718-96.648-62.371-121.391-3.26-6.92-8.363-12.705-14.826-15.949" stroke="#000" stroke-width="5" stroke-miterlimit="10"/><path d="M384.718 554.955s68.08 88.281 72.518 94.762c14.036 20.49 72.518 40.978 77.197 43.539 4.679 2.562 16.376 28.173 30.349 39.401 13.978 11.227 4.74-11.229 1.423-23.051-3.318-11.822-71.54-67.573-83.237-80.379-9.991-10.939-50.718-96.648-62.371-121.391-3.26-6.92-8.363-12.705-14.826-15.949" stroke="#000" stroke-width="5" stroke-miterlimit="10"/></g><defs><clipPath id="a"><path fill="#fff" d="M0 0h800v800H0z"/></clipPath></defs></svg>

<svg width="800" height="800" viewBox="0 0 800 800" fill="none" xmlns="http://www.w3.org/2000/svg">
<g clip-path="url(#clip0_298_12117)">
<path d="M502.953 709.606C470.203 712.167 439.792 750.584 395.345 755.708C350.897 760.83 299.432 753.145 283.058 750.584C266.682 748.023 264.343 753.145 269.022 768.513C273.701 783.88 292.415 789.002 322.826 789.002C353.237 789.002 374.291 786.441 395.344 781.32" fill="white"/>
<path d="M502.953 709.606C470.203 712.167 439.792 750.584 395.345 755.708C350.897 760.83 299.432 753.145 283.058 750.584C266.682 748.023 264.343 753.145 269.022 768.513C273.701 783.88 292.415 789.002 322.826 789.002C353.237 789.002 374.291 786.441 395.344 781.32" stroke="black" stroke-width="5" stroke-miterlimit="10"/>
<path d="M502.953 709.606C470.203 712.167 439.792 750.584 395.345 755.708C350.897 760.83 299.432 753.145 283.058 750.584C266.682 748.023 264.343 753.145 269.022 768.513C273.701 783.88 292.415 789.002 322.826 789.002C353.237 789.002 374.291 786.441 395.344 781.32" stroke="black" stroke-width="5" stroke-miterlimit="10"/>
<path d="M402.934 753.989C402.934 753.989 405.726 770.335 400.318 781.932Z" fill="white"/>
<path d="M402.934 753.989C402.934 753.989 405.726 770.335 400.318 781.932" stroke="black" stroke-width="5" stroke-miterlimit="10"/>
<path d="M402.934 753.989C402.934 753.989 405.726 770.335 400.318 781.932" stroke="black" stroke-width="5" stroke-miterlimit="10"/>
<path d="M352.578 787.996C354.307 782.895 356.646 762.407 354.307 757.284" stroke="black" stroke-width="5" stroke-miterlimit="10"/>
<path d="M561.646 704.484C540.593 686.556 463.396 704.484 463.396 704.484C449.36 691.679 447.879 659.962 447.879 659.962L397.895 650.7L347.289 659.962C347.289 659.962 346.43 691.679 332.394 704.484C332.394 704.484 255.197 686.556 234.144 704.484C213.09 722.412 241.161 750.584 264.555 758.268C287.948 765.95 362.805 781.317 397.895 781.317C432.986 781.317 507.842 765.95 531.236 758.268C554.628 750.584 582.701 722.412 561.646 704.484Z" fill="white" stroke="black" stroke-width="5" stroke-miterlimit="10"/>
<path d="M561.646 704.484C540.593 686.556 463.396 704.484 463.396 704.484C449.36 691.679 447.879 659.962 447.879 659.962L397.895 650.7L347.289 659.962C347.289 659.962 346.43 691.679 332.394 704.484C332.394 704.484 255.197 686.556 234.144 704.484C213.09 722.412 241.161 750.584 264.555 758.268C287.948 765.95 362.805 781.317 397.895 781.317C432.986 781.317 507.842 765.95 531.236 758.268C554.628 750.584 582.701 722.412 561.646 704.484Z" stroke="black" stroke-width="5" stroke-miterlimit="10"/>
<path d="M290.287 709.606C323.037 712.167 353.448 750.584 397.895 755.708C442.343 760.83 493.807 753.145 510.182 750.584C526.556 748.023 528.896 753.145 524.217 768.513C519.538 783.88 500.824 789.002 470.413 789.002C440.002 789.002 419.419 782.792 397.895 781.32C360.466 778.757 290.191 768.793 264.554 758.27" fill="white"/>
<path d="M290.287 709.606C323.037 712.167 353.448 750.584 397.895 755.708C442.343 760.83 493.807 753.145 510.182 750.584C526.556 748.023 528.896 753.145 524.217 768.513C519.538 783.88 500.824 789.002 470.413 789.002C440.002 789.002 419.419 782.792 397.895 781.32C360.466 778.757 290.191 768.793 264.554 758.27" stroke="black" stroke-width="5" stroke-miterlimit="10"/>
<path d="M290.287 709.606C323.037 712.167 353.448 750.584 397.895 755.708C442.343 760.83 493.807 753.145 510.182 750.584C526.556 748.023 528.896 753.145 524.217 768.513C519.538 783.88 500.824 789.002 470.413 789.002C440.002 789.002 419.419 782.792 397.895 781.32C360.466 778.757 290.191 768.793 264.554 758.27" stroke="black" stroke-width="5" stroke-miterlimit="10"/>
<path d="M502.953 709.606C470.203 712.167 439.792 750.584 395.345 755.708" stroke="black" stroke-width="5" stroke-miterlimit="10"/>
<path d="M447.879 659.962C447.879 659.962 426.935 670.762 397.787 670.762C368.642 670.762 347.289 659.962 347.289 659.962C347.289 659.962 346.956 631.774 349.628 570.322C350.296 554.963 351.536 542.735 352.971 533.105C355.467 516.293 363.008 500.911 374.205 489.08C374.307 488.97 374.413 488.86 374.518 488.75C390.877 471.42 379.18 420.198 379.18 420.198C379.18 420.198 390.879 430.442 404.912 430.442C418.946 430.442 411.93 448.37 411.93 448.37C411.93 448.37 410.438 454.988 412.478 465.675C414.703 477.315 416.654 492.927 424.485 501.171C432.061 509.149 447.406 529.329 450.218 537.027C454.897 549.832 447.878 578.005 445.539 588.249C443.2 598.494 447.879 659.962 447.879 659.962Z" fill="white" stroke="black" stroke-width="5" stroke-miterlimit="10"/>
<path d="M447.879 659.962C447.879 659.962 426.935 670.762 397.787 670.762C368.642 670.762 347.289 659.962 347.289 659.962C347.289 659.962 346.956 631.774 349.628 570.322C350.296 554.963 351.536 542.735 352.971 533.105C355.467 516.293 363.008 500.911 374.205 489.08C374.307 488.97 374.413 488.86 374.518 488.75C390.877 471.42 379.18 420.198 379.18 420.198C379.18 420.198 390.879 430.442 404.912 430.442C418.946 430.442 411.93 448.37 411.93 448.37C411.93 448.37 410.438 454.988 412.478 465.675C414.703 477.315 416.654 492.927 424.485 501.171C432.061 509.149 447.406 529.329 450.218 537.027C454.897 549.832 447.878 578.005 445.539 588.249C443.2 598.494 447.879 659.962 447.879 659.962Z" stroke="black" stroke-width="5" stroke-miterlimit="10"/>
<path d="M379.717 425.058C374.995 416.249 378.742 407.427 377.021 396.355C374.289 378.762 393.647 361.048 411.848 361.877C435.878 362.968 438.38 456.854 424.497 458.712C416.273 459.815 401.155 452.469 390.025 437.688C386.447 432.939 379.717 425.058 379.717 425.058Z" fill="white" stroke="black" stroke-width="5" stroke-miterlimit="10"/>
<path d="M379.717 425.058C374.995 416.249 378.742 407.427 377.021 396.355C374.289 378.762 393.647 361.048 411.848 361.877C435.878 362.968 438.38 456.854 424.497 458.712C416.273 459.815 401.155 452.469 390.025 437.688C386.447 432.939 379.717 425.058 379.717 425.058Z" stroke="black" stroke-width="5" stroke-miterlimit="10"/>
<path d="M422.051 372.661C421.966 389.142 411.305 419.136 392.342 414.038C371.027 408.311 379.877 422.072 381.599 426.424C383.325 430.776 393.759 438.884 391.657 440.16C389.557 441.438 362.062 428.635 358.857 404.924C355.654 381.214 363.758 369.855 374.914 362.355C386.07 354.855 404.476 353.513 415.802 360.921C427.129 368.33 422.051 372.661 422.051 372.661Z" fill="#100200" stroke="black" stroke-width="5" stroke-miterlimit="10"/>
<path d="M407.515 756.615C410.45 770.09 404.663 781.929 404.663 781.929" stroke="black" stroke-width="5" stroke-miterlimit="10"/>
<path d="M384.718 554.955C384.718 554.955 452.798 643.236 457.236 649.717C471.272 670.207 529.754 690.695 534.433 693.256C539.112 695.818 550.809 721.429 564.782 732.657C578.76 743.884 569.522 721.428 566.205 709.606C562.887 697.784 494.665 642.033 482.968 629.227C472.977 618.288 432.25 532.579 420.597 507.836C417.337 500.916 412.234 495.131 405.771 491.887" fill="white"/>
<path d="M384.718 554.955C384.718 554.955 452.798 643.236 457.236 649.717C471.272 670.207 529.754 690.695 534.433 693.256C539.112 695.818 550.809 721.429 564.782 732.657C578.76 743.884 569.522 721.428 566.205 709.606C562.887 697.784 494.665 642.033 482.968 629.227C472.977 618.288 432.25 532.579 420.597 507.836C417.337 500.916 412.234 495.131 405.771 491.887" stroke="black" stroke-width="5" stroke-miterlimit="10"/>
<path d="M384.718 554.955C384.718 554.955 452.798 643.236 457.236 649.717C471.272 670.207 529.754 690.695 534.433 693.256C539.112 695.818 550.809 721.429 564.782 732.657C578.76 743.884 569.522 721.428 566.205 709.606C562.887 697.784 494.665 642.033 482.968 629.227C472.977 618.288 432.25 532.579 420.597 507.836C417.337 500.916 412.234 495.131 405.771 491.887" stroke="black" stroke-width="5" stroke-miterlimit="10"/>
</g>
<defs>
<clipPath id="clip0_298_12117">
<rect width="800" height="800" fill="white"/>
</clipPath>
</defs>
</svg>
